X:1
T:Title
%%score { 1 | 2 }
L:1/8
Q:1/4=100
M:4/4
K:C
V:1 treble nm="Grand Piano"
V:2 bass 
V:1
 [EG]2 [EG]>[FA] [G,EG]2 [G,CE]>[G,DF] | [CEG]2 [CGc]>[CGB] [CFA]3 [CFA] | %2
w: W.~J.~Kirkpatrick * * * * *||
 [CEG]2 [CEG]>[CFA] [CEG]2 [G,DF]>[G,CE] | [G,B,D]6 z2 | [G,CE]2 [G,CE]>[G,DF] [CEG]2 [CGc]>[CGB] | %5
w: |||
 [CFA]2 [CAc]>[CFA] [CEG]3 [CEG] | [CGc]>[CGc] [Gc]2 d2 c>B |[M:7/8] [Ec]-[Ec]-[Ec]- [Ec]3 z | %8
w: |||
[M:1/8] [EG] |[M:4/4] [EG]>[EG] [EG]2 [EG]2 [Gc]>[GB] | A>A A2 A2 d>c | B>B B2 c2 B>c | %12
w: ||||
 d6 [Ec]>[Fd] | [Ge]>[Ge] [Ge]>[Fd] [Ec]2 [Ec]>[Ec] | [Fd]>[Ac] [GB]>[FA] [EG]3 [EG] | %15
w: |||
 [Gc]>[Gc] [Gc]2 d2 c>B | [Ec]6 z2 |] %17
w: ||
V:2
 [C,C]2 [C,C]>[C,C] C,2 C,>C, | C,2 E,>E, F,3 F, | C,2 C,>C, C,2 C,>C, | G,,6 z2 | %4
 C,2 C,>C, C,2 E,>D, | F,2 F,>F, C,3 C, | E,>E, [E,G,]2 [F,A,F]2 [G,E]>[G,D] | %7
[M:7/8] [C,G,]-[C,G,]-[C,G,]- [C,G,]3 z |[M:1/8] [C,C] | %9
[M:4/4] [C,C]>[C,C] [C,C]2 [C,C]2 [E,C]>[E,C] | [F,CF]>[F,CF] [F,CF]2 [F,CF]2 [F,A,F]>[F,DF] | %11
 [G,DF]>[G,DF] [G,DF]2 [A,D^F]2 [A,DF]>[A,CF] | [G,B,F]6[K:bass] [C,G,]>[C,G,] | %13
 [C,C]>[C,C] [C,C]>[C,C] [C,C]2 [C,G,]>[C,G,] | [F,A,]>[F,C] [F,C]>[F,C] [C,C]3 [C,C] | %15
 [E,C]>[E,C] [E,G,]2 [F,A,F]2 [G,E]>[G,D] | [C,G,]6 z2 |] %17

